X:1
T:Totoro: Path of the Wind
T:Versión simple para piano
L:1/8
M:4/4
K:D
V:1 treble nm="Piano" snm="Pno."
V:1
 z4 z2 Bd |: e2 ef d2 Bd | e2 ea f2 fa | bbbd' c'bag | f2 eB f2 Bd | e2 ef d2 Bd | e2 ea f2 fa | %7
 bbbd' c'bfB |1 d4 z2 Bd :| d2 d/e/f/g/ a/g/f/e/ d/c/B/A/ | GggG (g4 | g)GGg g2 fe | fgfe d4 | %13
 z4 z ^A =A^G | GggG (g4 | g)GGg g2 fe | fga(d d4) | e2 ce f2 Bd | e2 ef d2 Bd | e2 ea f2 fa | %20
 bbbd' c'bag | f2 eB f2 Bd | e2 ef d2 Bd | e2 ea f2 fa | bbbd' c'bfB | d4 z2 Bd | e4 e2 f2 | %27
 d2 c/d/ f2 Ad z/8 z/8 z/4 z/ | e4 e2 a2 | f8 | z8 | z8 | z8 | z8 |] %34

